www/assets/icons/attractions.svg

<svg width="24" height="24" viewBox="0 0 24 24" xmlns="http://www.w3.org/2000/svg" fill='currentColor'><path d="M10.435 18.75C10.805 18.29 11.375 18 12.005 18C12.635 18 13.195 18.29 13.565 18.75C13.955 18.66 14.325 18.54 14.685 18.39L13.265 15.21C12.875 15.36 12.445 15.44 12.005 15.44C11.545 15.44 11.105 15.35 10.705 15.19L9.275 18.38C9.655 18.54 10.035 18.67 10.435 18.75ZM5.155 10C4.995 10.59 4.905 11.21 4.905 11.85C4.905 12.6 5.025 13.32 5.235 14C5.865 14.05 6.455 14.4 6.795 14.99C7.125 15.56 7.145 16.22 6.905 16.78C7.175 17.05 7.465 17.31 7.775 17.54L9.295 14.15C8.825 13.57 8.545 12.83 8.545 12.02C8.545 10.13 10.095 8.61 12.005 8.61C13.915 8.61 15.465 10.14 15.465 12.02C15.465 12.84 15.175 13.59 14.685 14.18L16.185 17.53C16.505 17.29 16.805 17.03 17.085 16.74C16.865 16.19 16.885 15.54 17.205 14.99C17.535 14.42 18.105 14.07 18.725 14C18.945 13.32 19.065 12.59 19.065 11.84C19.065 11.2 18.975 10.57 18.815 9.98C18.175 9.94 17.555 9.59 17.215 8.98C16.855 8.36 16.865 7.62 17.185 7.03C16.275 6.05 15.085 5.32 13.745 4.98C13.395 5.6 12.745 6 12.005 6C11.265 6 10.615 5.59 10.265 4.99C8.925 5.33 7.735 6.04 6.825 7.02C7.155 7.62 7.175 8.37 6.805 9C6.455 9.62 5.815 9.97 5.155 10ZM3.855 9.58C3.075 8.98 2.835 7.88 3.345 7C3.855 6.12 4.92499 5.77 5.835 6.15C6.94499 4.98 8.395 4.12 10.015 3.73C10.155 2.75 10.995 2 12.005 2C13.015 2 13.855 2.75 13.985 3.73C15.615 4.12 17.055 4.97 18.165 6.15C19.075 5.77 20.155 6.12 20.655 7C21.165 7.88 20.925 8.98 20.145 9.58C20.375 10.35 20.495 11.16 20.495 12C20.495 12.84 20.375 13.65 20.145 14.42C20.925 15.02 21.165 16.12 20.655 17C20.145 17.88 19.075 18.23 18.165 17.85C17.765 18.28 17.315 18.66 16.825 19L18.165 22H16.305L15.335 19.83C14.905 20.01 14.455 20.16 13.995 20.27C13.855 21.25 13.015 22 12.005 22C10.995 22 10.155 21.25 10.025 20.27C9.545 20.15 9.085 20 8.645 19.81L7.665 22H5.785L7.145 18.97C6.675 18.64 6.235 18.26 5.845 17.85C4.925 18.23 3.855 17.88 3.345 17C2.835 16.12 3.075 15.02 3.855 14.42C3.625 13.65 3.505 12.84 3.505 12C3.505 11.16 3.625 10.35 3.855 9.58Z"/></svg>

<svg xmlns="http://www.w3.org/2000/svg" width="24" height="24" viewBox="0 0 24 24" fill='currentColor'><path d="M10.435 18.75c.37-.46.94-.75 1.57-.75s1.19.29 1.56.75c.39-.09.76-.21 1.12-.36l-1.42-3.18a3.52 3.52 0 0 1-2.56-.02l-1.43 3.19c.38.16.76.29 1.16.37M5.155 10a7.06 7.06 0 0 0 .08 4c.63.05 1.22.4 1.56.99.33.57.35 1.23.11 1.79.27.27.56.53.87.76l1.52-3.39c-.47-.58-.75-1.32-.75-2.13 0-1.89 1.55-3.41 3.46-3.41s3.46 1.53 3.46 3.41c0 .82-.29 1.57-.78 2.16l1.5 3.35c.32-.24.62-.5.9-.79-.22-.55-.2-1.2.12-1.75.33-.57.9-.92 1.52-.99a7.03 7.03 0 0 0 .09-4.02c-.64-.04-1.26-.39-1.6-1-.36-.62-.35-1.36-.03-1.95-.91-.98-2.1-1.71-3.44-2.05-.35.62-1 1.02-1.74 1.02s-1.39-.41-1.74-1.01a7.05 7.05 0 0 0-3.44 2.03c.33.6.35 1.35-.02 1.98-.35.62-.99.97-1.65 1m-1.3-.42c-.78-.6-1.02-1.7-.51-2.58s1.58-1.23 2.49-.85a8.53 8.53 0 0 1 4.18-2.42c.14-.98.98-1.73 1.99-1.73s1.85.75 1.98 1.73c1.63.39 3.07 1.24 4.18 2.42a1.99 1.99 0 0 1 2.49.85c.51.88.27 1.98-.51 2.58.23.77.35 1.58.35 2.42s-.12 1.65-.35 2.42c.78.6 1.02 1.7.51 2.58s-1.58 1.23-2.49.85c-.4.43-.85.81-1.34 1.15l1.34 3h-1.86l-.97-2.17c-.43.18-.88.33-1.34.44-.14.98-.98 1.73-1.99 1.73s-1.85-.75-1.98-1.73c-.48-.12-.94-.27-1.38-.46L7.665 22h-1.88l1.36-3.03a8.7 8.7 0 0 1-1.3-1.12c-.92.38-1.99.03-2.5-.85s-.27-1.98.51-2.58a8.4 8.4 0 0 1-.35-2.42c0-.84.12-1.65.35-2.42"/></svg>
